web/themes/custom/oh_my_pasta/images/icons/map.svg

<svg width="40" height="35" viewBox="0 0 40 35" fill="currentColor" xmlns="http://www.w3.org/2000/svg">
<path d="M39.4618 6.95077C39.1271 6.73498 38.7057 6.70389 38.343 6.86834L31.4044 10.0132V34.6183L39.3097 31.0435C39.7292 30.8538 39.9987 30.4361 39.9987 29.9758V7.93569C39.9987 7.53748 39.7965 7.16655 39.4618 6.95077Z"/>
<path d="M0.68625 10.1412C0.268281 10.3315 0 10.7485 0 11.2077V33.2477C0 33.6462 0.202422 34.0174 0.537422 34.2331C0.872422 34.4487 1.29406 34.4795 1.6568 34.3145L8.5943 31.1612V6.54041L0.68625 10.1412Z"/>
<path d="M28.8842 10.3311C28.7382 10.773 28.5589 11.2082 28.3443 11.6328C28.3236 11.6736 28.3007 11.7132 28.2756 11.7514L21.6925 21.7724H22.6039C23.2511 21.7724 23.7757 22.2971 23.7757 22.9443C23.7757 23.5915 23.2511 24.1161 22.6039 24.1161H17.3979C16.7507 24.1161 16.2261 23.5915 16.2261 22.9443C16.2261 22.2971 16.7507 21.7724 17.3979 21.7724H18.3093L11.7262 11.7514C11.7011 11.7132 11.6782 11.6736 11.6575 11.6328C11.345 11.0145 11.1061 10.3741 10.9389 9.72255V30.7997L29.0628 34.8032V10.3708L28.8842 10.3311Z"/>
<path d="M25.7117 4.05028C24.4841 2.05434 22.3494 0.862854 20.0013 0.862854C17.6532 0.862854 15.5185 2.05442 14.2909 4.05028C13.0803 6.01871 12.9697 8.42082 13.9913 10.4891L20.0013 19.6379L26.0113 10.4891C27.0329 8.42082 26.9222 6.01871 25.7117 4.05028ZM20.0013 10.8604C18.1201 10.8604 16.5952 9.33934 16.5952 7.46301C16.5952 5.58668 18.1201 4.06567 20.0013 4.06567C21.8824 4.06567 23.4074 5.58668 23.4074 7.46301C23.4074 9.33926 21.8824 10.8604 20.0013 10.8604Z"/>
</svg>

<svg width="40" height="35" fill="currentColor" xmlns="http://www.w3.org/2000/svg"><path d="M39.462 6.95a1.172 1.172 0 00-1.119-.082l-6.939 3.145v24.605l7.906-3.575c.42-.19.689-.607.689-1.067V7.936c0-.399-.203-.77-.537-.985zM.686 10.141c-.418.19-.686.607-.686 1.067v22.04a1.172 1.172 0 001.657 1.067l6.937-3.154V6.541l-7.908 3.6zm28.198.19a9.47 9.47 0 01-.54 1.302c-.02.04-.043.08-.068.118l-6.584 10.021h.912a1.172 1.172 0 010 2.344h-5.206a1.172 1.172 0 110-2.344h.911l-6.583-10.02a1.226 1.226 0 01-.069-.12 9.428 9.428 0 01-.718-1.91V30.8l18.124 4.003V10.371l-.179-.04z"/><path d="M25.712 4.05a6.657 6.657 0 00-5.71-3.187A6.658 6.658 0 0014.29 4.05a6.617 6.617 0 00-.3 6.44L20 19.638l6.01-9.149a6.617 6.617 0 00-.3-6.439zm-5.71 6.81a3.402 3.402 0 01-3.407-3.397 3.402 3.402 0 013.406-3.397 3.402 3.402 0 013.406 3.397 3.402 3.402 0 01-3.406 3.397z"/></svg>
